X: 10
T: Missa J'ay pris amours / Sanctus
N: Derived from Ort1002d-Missa_Jay_pris_amours-Sanctus.krn
C: Marbrianus de Orto
%%abc-version 2.0
%%abcx-abcm2ps-target-version 5.9.1 (29 Sep 2008)
%%abc-creator hum2abc beta
%%abcx-conversion-date 2019/02/17 07:28:37
%%abc-edited-by Jesse Rodin
%%abc-edited-by Jesse Rodin 8/11/2013
%%abcx-initial-encoding-date 2013/08/11/
%%humdrum-veritas 4007135119
%%humdrum-veritas-data 1896086552
%%linebreak <none>
%%barnumbers 0
L: 1/4
M: 4/2
Q: 1/2=120
%%staves [1 2 3 4]
V: 1 clef=treble
V: 2 clef=treble-8
V: 3 clef=treble-8
V: 4 clef=bass
K: C
[V:1] A6GF | 
[V:2] z8 | 
[V:3] z4F4 | 
[V:4] A,8 | 
[V:1] E4z2G2- | 
[V:2] z8 | 
[V:3] A4E4 | 
[V:4] C4B,4 | 
[V:1] GAB2c2B2 | 
[V:2] z8 | 
[V:3] e8 | 
[V:4] E,4z2G,2 | 
[V:1] c2BAG2z2 | 
[V:2] z8 | 
[V:3] e4z4 | 
[V:4] A,3B,C2B,G, | 
[V:1] c2BGA2G2 | 
[V:2] z8 | 
[V:3] z2E2F2G2 | 
[V:4] A,2G,2z2B,2 | 
[V:1] z2B4c2 | 
[V:2] z8 | 
[V:3] A2G2E2A2- | 
[V:4] C2D2E2C2- | 
[V:1] A3Bcde2- | 
[V:2] z8 | 
[V:3] A2F4c2 | 
[V:4] C2D2C2A,2 | 
[V:1] e2d4^c2 | 
[V:2] z8 | 
[V:3] d4e4 | 
[V:4] B,4A,4 | 
[V:1] d3cA4 | 
[V:2] d4f4 | 
[V:3] f4d4 | 
[V:4] D,8 | 
[V:1] c8 | 
[V:2] e4A4 | 
[V:3] c3de4 | 
[V:4] A,4C4 | 
[V:1] c4B4 | 
[V:2] z2c2d2e2 | 
[V:3] A4z2B2 | 
[V:4] F,2A,2G,4 | 
[V:1] A4z2A2 | 
[V:2] f2ecd2c2 | 
[V:3] c4f3e | 
[V:4] F,8 | 
[V:1] B2c2d2B2 | 
[V:2] z2e2f2g2 | 
[V:3] d2c2A2G2 | 
[V:4] G,2A,2D,2E,2 | 
[V:1] A2z2A2BG | 
[V:2] a2gefd2e | 
[V:3] c2B2A2G2 | 
[V:4] F,2G,2D,2G,2 | 
[V:1] A2G2A2B2- | 
[V:2] dB^c2d4 | 
[V:3] z4A2G2- | 
[V:4] F,2E,2D,2D2- | 
[V:1] BAA4^G2 | 
[V:2] z4d4 | 
[V:3] G2A2d2B2 | 
[V:4] D2C2B,4 | 
[V:1] A4z4 | 
[V:2] f2e4c2 | 
[V:3] c3Ac2de | 
[V:4] A,8 | 
[V:1] A3Bc2d2 | 
[V:2] d2c4f2- | 
[V:3] f4e2d2- | 
[V:4] F,4A,2_B,2 | 
[V:1] B4A4 | 
[V:2] f2e2f4 | 
[V:3] d2B2c4 | 
[V:4] G,4F,4 | 
[V:1] d4c2d2- | 
[V:2] z4f4 | 
[V:3] z8 | 
[V:4] _B,4A,2B,2 | 
[V:1] d2c4B2 | 
[V:2] e2c2d4 | 
[V:3] z8 | 
[V:4] C2A,2G,4 | 
[V:1] c4z4 | 
[V:2] c2A4d2- | 
[V:3] e4f4 | 
[V:4] A,3G,F,2D,2 | 
[V:1] z4A2c2- | 
[V:2] d2^c2d2e2 | 
[V:3] e4d2cB | 
[V:4] A,4z4 | 
[V:1] cBA4G2- | 
[V:2] c4z4 | 
[V:3] AGF4G2 | 
[V:4] z8 | 
[V:1] G2^F2G4 | 
[V:2] c4d3c | 
[V:3] A4G4 | 
[V:4] z4B,3C | 
[V:1] z2c4B2 | 
[V:2] BAA4G2 | 
[V:3] z8 | 
[V:4] D2E6- | 
[V:1] c3BA2c2 | 
[V:2] A4z2e2 | 
[V:3] z8 | 
[V:4] E2C4A,2 | 
[V:1] B4A4- | 
[V:2] e2e2f2ed | 
[V:3] z4c4- | 
[V:4] G,4F,3G, | 
[V:1] A4G2E2 | 
[V:2] c2d2e2c2- | 
[V:3] c2A2B2G2 | 
[V:4] A,2F,2E,3F, | 
[V:1] D4z2G2 | 
[V:2] c2B2c4 | 
[V:3] z2G2A2G2 | 
[V:4] G,4F,2E,2 | 
[V:1] A2E2G2A2 | 
[V:2] z2A2B2c2 | 
[V:3] c4G2c2 | 
[V:4] A,4E,2A,2 | 
[V:1] B2c2G2z2 | 
[V:2] d2A2z2c2 | 
[V:3] B2z2e3d | 
[V:4] G,2F,2E,2A,2 | 
[V:1] z8 | 
[V:2] d2c2f3e | 
[V:3] B2A2z2A2 | 
[V:4] G,2A,2D,2F,2 | 
[V:1] B2c2d2e2 | 
[V:2] d2c2f2ea- | 
[V:3] B2A2d2c2 | 
[V:4] G,2A,2D,2A,2- | 
[V:1] c4d3c | 
[V:2] age2f2d2- | 
[V:3] e2A2z2A2 | 
[V:4] A,2A,2D,4 | 
[V:1] BAA4G2 | 
[V:2] d2c2d4- | 
[V:3] G2A2B4 | 
[V:4] z4G,4 | 
[V:1] A2d4B2 | 
[V:2] d8- | 
[V:3] A3FGDG2 | 
[V:4] D,4G,4- | 
[V:1] B8 ||  
[V:2] d8 ||  
[V:3] G8 ||  
[V:4] G,8 ||  
[V:1]  [K:C] [K:clef=treble][M:4/2]B8 | 
[V:2]  [K:C] [K:clef=treble-8][M:4/2]e8 | 
[V:3]  [K:C] [K:clef=treble-8][M:4/2]z8 | 
[V:4]  [K:C] [K:clef=bass][M:4/2]E,8 | 
[V:1] B8 | 
[V:2] d4e4- | 
[V:3] z8 | 
[V:4] G,8 | 
[V:1] c4B4 | 
[V:2] e2f2g4- | 
[V:3] z8 | 
[V:4] A,4E,4 | 
[V:1] e4d4 | 
[V:2] g4f4- | 
[V:3] z8 | 
[V:4] C,4D,4 | 
[V:1] c8 | 
[V:2] f4e4- | 
[V:3] z8 | 
[V:4] A,,8 | 
[V:1] B8 | 
[V:2] e2d2e3d | 
[V:3] E8 | 
[V:4] E,4z4 | 
[V:1] z8 | 
[V:2] c2B4c2- | 
[V:3] E8 | 
[V:4] z8 | 
[V:1] z8 | 
[V:2] c2BAG2c2- | 
[V:3] F4E4 | 
[V:4] z8 | 
[V:1] z8 | 
[V:2] cde4f2- | 
[V:3] A4G2A2- | 
[V:4] z8 | 
[V:1] z8 | 
[V:2] f2e4d2 | 
[V:3] AGE2F4 | 
[V:4] z8 | 
[V:1] G8 | 
[V:2] e8- | 
[V:3] E4z4 | 
[V:4] E,8- | 
[V:1] G8 | 
[V:2] e8 | 
[V:3] z2B4c2- | 
[V:4] E,8 | 
[V:1] A4G4 | 
[V:2] A4B4 | 
[V:3] c2d2e4 | 
[V:4] F,4E,4 | 
[V:1] c4B4 | 
[V:2] A4E4 | 
[V:3] c2f4e2- | 
[V:4] A,4G,4 | 
[V:1] A8 | 
[V:2] c4A4 | 
[V:3] e2dcd4 | 
[V:4] F,8 | 
[V:1] G8 | 
[V:2] B2cBc2B2 | 
[V:3] e6d2 | 
[V:4] E,8- | 
[V:1] G6A2 | 
[V:2] e2d2c4 | 
[V:3] B4e4- | 
[V:4] E,8- | 
[V:1] G8 | 
[V:2] B4e4- | 
[V:3] e2d2B2cB | 
[V:4] E,8- | 
[V:1] z4G4 | 
[V:2] e2d2c2B2 | 
[V:3] c2B2e2d2 | 
[V:4] E,8 | 
[V:1] G3AG3F | 
[V:2] e8 | 
[V:3] c4B4 | 
[V:4] E,8 | 
[V:1] A3GE2G2- | 
[V:2] c4z2e2- | 
[V:3] A4c4 | 
[V:4] F,4C,4 | 
[V:1] GFEDC2F2 | 
[V:2] efg2a4 | 
[V:3] B4A3B | 
[V:4] E,4F,2D,2 | 
[V:1] E2c4BA | 
[V:2] z2a3ge2- | 
[V:3] cde4c2 | 
[V:4] A,4A,4 | 
[V:1] G2A4^G2 | 
[V:2] e2d2e4 | 
[V:3] B2A2B4 | 
[V:4] E,2F,2E,4 | 
[V:1] A8 ||  
[V:2] e8 ||  
[V:3] A8 ||  
[V:4] A,,8 ||  
[V:1]  [K:C] [K:clef=treble][M:3/1]z12 | 
[V:2]  [K:C] [K:clef=treble-8][M:3/1]A4c6d2 | 
[V:3]  [K:C] [K:clef=treble-8][M:3/1]z12 | 
[V:4]  [K:C] [K:clef=bass][M:3/1]A,8A,4 | 
[V:1] z12 | 
[V:2] e8d4 | 
[V:3] z12 | 
[V:4] G,4F,8 | 
[V:1] G8A4 | 
[V:2] e8c4 | 
[V:3] z12 | 
[V:4] E,8F,4 | 
[V:1] G4F8 | 
[V:2] c8B4 | 
[V:3] z12 | 
[V:4] C,4D,8 | 
[V:1] E4D2C2F4 | 
[V:2] c4F4c4 | 
[V:3] A8A4 | 
[V:4] z12 | 
[V:1] E8D4 | 
[V:2] B8A4 | 
[V:3] G4F8 | 
[V:4] z12 | 
[V:1] E6F2G4 | 
[V:2] B8e4- | 
[V:3] E12- | 
[V:4] G,6A,2B,4 | 
[V:1] A4G8 | 
[V:2] e12 | 
[V:3] E12 | 
[V:4] C4B,8 | 
[V:1] c8B4 | 
[V:2] c6d2e4 | 
[V:3] e12- | 
[V:4] A,8G,4 | 
[V:1] A6G2G4 | 
[V:2] c4B8 | 
[V:3] e12 | 
[V:4] A,4E,8 | 
[V:1] A4e6d2 | 
[V:2] A4c4A4 | 
[V:3] e12- | 
[V:4] A,6B,2C4 | 
[V:1] c4B8 | 
[V:2] z4e4B4 | 
[V:3] e4e8 | 
[V:4] A,4G,8 | 
[V:1] A6B2c4 | 
[V:2] c8z4 | 
[V:3] f12- | 
[V:4] F,6G,2A,4 | 
[V:1] d6c2B2A2 | 
[V:2] z12 | 
[V:3] f12 | 
[V:4] D,8D,4 | 
[V:1] c2B2G8 | 
[V:2] z12 | 
[V:3] e8c4- | 
[V:4] A,4C8 | 
[V:1] c8B4 | 
[V:2] z12 | 
[V:3] c4d8 | 
[V:4] A,4G,8 | 
[V:1] c12 | 
[V:2] c2d2e2f2g2a2 | 
[V:3] c8c4 | 
[V:4] C,4z4z4 | 
[V:1] z4z4c4 | 
[V:2] g8^f4 | 
[V:3] B4A8 | 
[V:4] z12 | 
[V:1] B4G4A4- | 
[V:2] g8c4 | 
[V:3] G4c8 | 
[V:4] G,4E,4F,4- | 
[V:1] A4G8 | 
[V:2] A4B6A2 | 
[V:3] d4e8 | 
[V:4] F,4E,8 | 
[V:1] A4E4G4- | 
[V:2] A4G8 | 
[V:3] A4c4B4 | 
[V:4] F,4C,4E,4- | 
[V:1] G4F8 | 
[V:2] G4A6B2 | 
[V:3] c4d8 | 
[V:4] E,4D,8 | 
[V:1] E4B6A2 | 
[V:2] c4B4G4 | 
[V:3] e8d4 | 
[V:4] C,4G,8 | 
[V:1] A8G4 | 
[V:2] c4e8 | 
[V:3] c4B8 | 
[V:4] A,4E,8 | 
[V:1] c6d2e4- | 
[V:2] g4a4g4 | 
[V:3] E4F4E4 | 
[V:4] C,4C6B,2 | 
[V:1] e2d2B4c4 | 
[V:2] e4g4c4 | 
[V:3] A4G4F4- | 
[V:4] C4D4A,4- | 
[V:1] A6^G2G2^F2 | 
[V:2] d4e8- | 
[V:3] F4E8 | 
[V:4] A,4B,8 | 
[V:1] A12 ||  
[V:2] e12 ||  
[V:3] A12 ||  
[V:4] A,12 ||  
[V:1]  [K:C] [K:clef=treble][M:2/1]z8 | 
[V:2]  [K:C] [K:clef=treble-8][M:2/1]G8 | 
[V:3]  [K:C] [K:clef=treble-8][M:2/1]z8 | 
[V:4]  [K:C] [K:clef=bass][M:2/1]z8 | 
[V:1] z8 | 
[V:2] A4B4 | 
[V:3] z8 | 
[V:4] z8 | 
[V:1] G8 | 
[V:2] c4B2c2- | 
[V:3] z8 | 
[V:4] z8 | 
[V:1] A4B4 | 
[V:2] c2BAG4 | 
[V:3] z8 | 
[V:4] z8 | 
[V:1] c6BA | 
[V:2] A3Bcde2- | 
[V:3] z8 | 
[V:4] z8 | 
[V:1] G2B2A4 | 
[V:2] efg4^f2 | 
[V:3] z8 | 
[V:4] z4D,4 | 
[V:1] G4z4 | 
[V:2] g4z2g2 | 
[V:3] z4G4 | 
[V:4] E,4E,4 | 
[V:1] z8 | 
[V:2] f3ed4 | 
[V:3] A4B4 | 
[V:4] F,4G,4 | 
[V:1] z8 | 
[V:2] c2e4dc | 
[V:3] c6BA | 
[V:4] A,4E,4- | 
[V:1] z8 | 
[V:2] B4z4 | 
[V:3] G2B2A4 | 
[V:4] E,2G,4^F,2 | 
[V:1] z4E4 | 
[V:2] B4c4 | 
[V:3] G4z4 | 
[V:4] G,4z4 | 
[V:1] F4G4 | 
[V:2] d4e4 | 
[V:3] z4E4 | 
[V:4] z8 | 
[V:1] A4E4 | 
[V:2] A4z4 | 
[V:3] F4G4 | 
[V:4] z4C,4- | 
[V:1] z8 | 
[V:2] z4B2c2 | 
[V:3] A4E4 | 
[V:4] C,2D,2E,2C,2 | 
[V:1] z8 | 
[V:2] d4c4 | 
[V:3] z8 | 
[V:4] G,4A,4 | 
[V:1] G4A4 | 
[V:2] e4f2d2- | 
[V:3] z8 | 
[V:4] E,4z4 | 
[V:1] G4c4- | 
[V:2] d2g4^f2 | 
[V:3] G4A4 | 
[V:4] z8 | 
[V:1] c2B2A4 | 
[V:2] g4z4 | 
[V:3] G4c4- | 
[V:4] E,4F,4 | 
[V:1] G4z4 | 
[V:2] z4c4 | 
[V:3] c2B2A4 | 
[V:4] E,4F,4 | 
[V:1] z8 | 
[V:2] B3AB2c2- | 
[V:3] G4z4 | 
[V:4] G,4E,4 | 
[V:1] z8 | 
[V:2] cBc2d4 | 
[V:3] z8 | 
[V:4] F,2E,2F,2G,2- | 
[V:1] z8 | 
[V:2] B2c3dB2 | 
[V:3] z8 | 
[V:4] G,2E,2F,2G,2 | 
[V:1] z8 | 
[V:2] c4B2AB | 
[V:3] z8 | 
[V:4] A,2E,4F,2 | 
[V:1] z8 | 
[V:2] cde4d2 | 
[V:3] z8 | 
[V:4] E,2G,2F,4 | 
[V:1] z8 | 
[V:2] e4z4 | 
[V:3] B4c4 | 
[V:4] E,4z4 | 
[V:1] B4c4 | 
[V:2] z4z2e2 | 
[V:3] d4e4 | 
[V:4] z8 | 
[V:1] d4e4 | 
[V:2] f2g4a2- | 
[V:3] d2B2c2A2 | 
[V:4] z8 | 
[V:1] d2B2c2A2- | 
[V:2] a2g2a4 | 
[V:3] B4A4 | 
[V:4] z8 | 
[V:1] A2G2A4 | 
[V:2] e4z2d2- | 
[V:3] B2c4d2 | 
[V:4] E,4F,4 | 
[V:1] z8 | 
[V:2] d2e4f2 | 
[V:3] B4z4 | 
[V:4] G,4A,2F,2- | 
[V:1] z8 | 
[V:2] d2e4d2- | 
[V:3] z8 | 
[V:4] F,2G,2F,2D,2 | 
[V:1] z8 | 
[V:2] d2cdefg2- | 
[V:3] z8 | 
[V:4] E,4C,2C2- | 
[V:1] G4A4 | 
[V:2] g2e4d2 | 
[V:3] E4F4 | 
[V:4] C2B,2A,4 | 
[V:1] G2c6- | 
[V:2] e4f2g2 | 
[V:3] E4A2G2 | 
[V:4] B,4A,2E,2 | 
[V:1] c2B2A4 | 
[V:2] e4f4 | 
[V:3] c8 | 
[V:4] A,2G,2F,4 | 
[V:1] G4c4 | 
[V:2] e4f4 | 
[V:3] c4A4 | 
[V:4] C,4z4 | 
[V:1] d2e4dc | 
[V:2] z2g2a4 | 
[V:3] G2c4d2 | 
[V:4] z8 | 
[V:1] B4c2d2- | 
[V:2] g2e4f2- | 
[V:3] e4z4 | 
[V:4] z8 | 
[V:1] d2cBA4 | 
[V:2] f2edc2d2- | 
[V:3] z4e2f2- | 
[V:4] z8 | 
[V:1] z4c4 | 
[V:2] d2cBA2e2- | 
[V:3] f2edc2A2 | 
[V:4] z8 | 
[V:1] B2c4BA | 
[V:2] ede2fedc | 
[V:3] G2A2F4 | 
[V:4] z4A,4 | 
[V:1] B2E4D2 | 
[V:2] d2c2A4 | 
[V:3] z8 | 
[V:4] G,2A,2F,4 | 
[V:1] E2G4FE | 
[V:2] B4z4 | 
[V:3] G3AB2c2- | 
[V:4] E,4z4 | 
[V:1] D4z4 | 
[V:2] z2d3cBA | 
[V:3] c2B2A2d2- | 
[V:4] G,4F,2G,2 | 
[V:1] z2G4F2 | 
[V:2] G4A4 | 
[V:3] d2c2d4- | 
[V:4] E,4D,4 | 
[V:1] G2FED2A2 | 
[V:2] G4A4 | 
[V:3] d4d4 | 
[V:4] z4F,4 | 
[V:1] G2A4GF | 
[V:2] B2A2d4 | 
[V:3] e2c4B2 | 
[V:4] E,2F,2D,4 | 
[V:1] E2c2B2c2- | 
[V:2] e8 | 
[V:3] c2BAG2A2 | 
[V:4] C,4z4 | 
[V:1] c2BAG2A2- | 
[V:2] f4d2e2 | 
[V:3] F4z4 | 
[V:4] C4B,2C2 | 
[V:1] ABc4B2 | 
[V:2] f4g4 | 
[V:3] c4d4 | 
[V:4] A,4G,4 | 
[V:1] c3de2dc | 
[V:2] z2c3def | 
[V:3] e8 | 
[V:4] z4A,4 | 
[V:1] B2c4BA | 
[V:2] g2e4d2 | 
[V:3] e4A4 | 
[V:4] G,2A,2F,4 | 
[V:1] G2A4^G2 | 
[V:2] e2f2e4- | 
[V:3] B8 | 
[V:4] E,2D,2E,4 | 
[V:1] A8 ||  
[V:2] e8 ||  
[V:3] A8 ||  
[V:4] A,,8 ||  



